hero/outline/adjustments-vertical.svg

<svg width="24" height="24" viewBox="0 0 24 24" fill="none" xmlns="http://www.w3.org/2000/svg">
<path d="M6 13.5L6 3.75M6 13.5C6.82843 13.5 7.5 14.1716 7.5 15C7.5 15.8284 6.82843 16.5 6 16.5M6 13.5C5.17157 13.5 4.5 14.1716 4.5 15C4.5 15.8284 5.17157 16.5 6 16.5M6 20.25L6 16.5M18 13.5V3.75M18 13.5C18.8284 13.5 19.5 14.1716 19.5 15C19.5 15.8284 18.8284 16.5 18 16.5M18 13.5C17.1716 13.5 16.5 14.1716 16.5 15C16.5 15.8284 17.1716 16.5 18 16.5M18 20.25L18 16.5M12 7.5V3.75M12 7.5C12.8284 7.5 13.5 8.17157 13.5 9C13.5 9.82843 12.8284 10.5 12 10.5M12 7.5C11.1716 7.5 10.5 8.17157 10.5 9C10.5 9.82843 11.1716 10.5 12 10.5M12 20.25V10.5" stroke="#0F172A" stroke-width="1.5" stroke-linecap="round" stroke-linejoin="round"/>
</svg>

<svg viewBox="0 0 24 24" xmlns="http://www.w3.org/2000/svg"><path fill="none" stroke="#000" stroke-linecap="round" stroke-linejoin="round" stroke-width="1.5" d="M6 13.5V3.75m0 9.75v0c.82 0 1.5.67 1.5 1.5 0 .82-.68 1.5-1.5 1.5m0-3v0c-.83 0-1.5.67-1.5 1.5 0 .82.67 1.5 1.5 1.5m0 3.75V16.5m12-3V3.75m0 9.75v0c.82 0 1.5.67 1.5 1.5 0 .82-.68 1.5-1.5 1.5m0-3v0c-.83 0-1.5.67-1.5 1.5 0 .82.67 1.5 1.5 1.5m0 3.75V16.5m-6-9V3.75m0 3.75v0c.82 0 1.5.67 1.5 1.5 0 .82-.68 1.5-1.5 1.5m0-3v0c-.83 0-1.5.67-1.5 1.5 0 .82.67 1.5 1.5 1.5m0 9.75V10.5"/></svg>
